data/cards/self-care/praying.svg

<svg width="512" height="512" viewBox="0 0 512 512" fill="none" xmlns="http://www.w3.org/2000/svg">
<g clip-path="url(#clip0)">
<path d="M436.626 196.631C421.818 181.823 397.81 181.824 383.003 196.631L422.727 156.907C437.535 142.099 437.535 118.092 422.727 103.284C407.919 88.476 383.911 88.476 369.104 103.284L400.651 71.737C415.189 57.199 416.266 33.512 402.254 18.466C387.543 2.67102 362.803 2.33902 347.671 17.471L300.414 64.728C315.222 49.92 315.222 25.913 300.414 11.105C285.606 -3.70298 261.599 -3.70298 246.791 11.105L138.453 119.442V81.588C138.453 55.558 117.352 34.457 91.3219 34.457C65.2919 34.457 44.1899 55.558 44.1899 81.588V274.712C44.1899 292.197 37.2439 308.965 24.8809 321.329L20.6569 325.553C3.57692 342.633 3.57692 370.326 20.6569 387.406L84.9809 451.73C102.061 468.81 129.754 468.81 146.835 451.73L183.652 414.913C188.793 409.771 195.767 406.883 203.038 406.883H233.778C263.372 406.883 291.754 395.127 312.68 374.201L436.627 250.254C451.434 235.447 451.434 211.439 436.626 196.631Z" fill="#FFBE9D"/>
<path d="M493.047 235.129C478.239 220.321 454.232 220.322 439.424 235.129L479.148 195.405C493.956 180.597 493.956 156.589 479.148 141.782C464.34 126.974 440.332 126.974 425.525 141.782L457.072 110.235C471.61 95.6971 472.687 72.0101 458.675 56.9641C443.964 41.1681 419.224 40.8371 404.092 55.9691L356.835 103.226C371.643 88.4181 371.643 64.4111 356.835 49.6031C342.027 34.7951 318.02 34.7951 303.212 49.6031L194.874 157.94V120.086C194.874 94.0561 173.773 72.9551 147.743 72.9551C121.713 72.9551 100.612 94.0571 100.612 120.086V313.21C100.612 330.695 93.6659 347.463 81.3029 359.827L68.1179 373.012C51.0379 390.092 51.0379 417.785 68.1179 434.866L132.442 499.19C149.522 516.27 177.215 516.27 194.296 499.19L240.074 453.412C245.215 448.271 252.189 445.382 259.46 445.382H290.2C319.794 445.382 348.176 433.626 369.102 412.7L493.049 288.753C507.855 273.944 507.855 249.936 493.047 235.129Z" fill="#FFD3BD"/>
<path d="M291.316 176.244C289.397 176.244 287.477 175.512 286.013 174.048C283.084 171.118 283.084 166.37 286.013 163.441L351.531 97.9226C354.46 94.9946 359.209 94.9946 362.137 97.9226C365.066 100.853 365.066 105.601 362.137 108.53L296.619 174.048C295.155 175.512 293.235 176.244 291.316 176.244Z" fill="#FFBE9D"/>
<path d="M354.474 220.332C352.555 220.332 350.635 219.6 349.171 218.136C346.242 215.206 346.242 210.458 349.171 207.529L420.222 136.478C423.151 133.55 427.9 133.55 430.828 136.478C433.757 139.408 433.757 144.156 430.828 147.085L359.777 218.136C358.313 219.6 356.393 220.332 354.474 220.332Z" fill="#FFBE9D"/>
<path d="M398.563 283.49C396.644 283.49 394.724 282.758 393.26 281.294C390.331 278.364 390.331 273.616 393.26 270.687L434.121 229.826C437.05 226.898 441.799 226.898 444.728 229.826C447.657 232.756 447.657 237.504 444.728 240.433L403.867 281.294C402.401 282.758 400.482 283.49 398.563 283.49Z" fill="#FFBE9D"/>
</g>
<defs>
<clipPath id="clip0">
<rect width="512" height="512" fill="white"/>
</clipPath>
</defs>
</svg>

<svg xmlns="http://www.w3.org/2000/svg" width="512" height="512" fill="none"><g clip-path="url(#a)"><path fill="#FFBE9D" d="M436.626 196.631c-14.808-14.808-38.816-14.807-53.623 0l39.724-39.724c14.808-14.808 14.808-38.815 0-53.623s-38.816-14.808-53.623 0l31.547-31.547c14.538-14.538 15.615-38.225 1.603-53.271-14.711-15.795-39.451-16.127-54.583-.995l-47.257 47.257c14.808-14.808 14.808-38.815 0-53.623s-38.815-14.808-53.623 0L138.453 119.442V81.588c0-26.03-21.101-47.131-47.131-47.131S44.19 55.558 44.19 81.588v193.124a65.929 65.929 0 0 1-19.31 46.617l-4.223 4.224c-17.08 17.08-17.08 44.773 0 61.853L84.98 451.73c17.08 17.08 44.773 17.08 61.854 0l36.817-36.817a27.413 27.413 0 0 1 19.386-8.03h30.74a111.584 111.584 0 0 0 78.902-32.682l123.947-123.947c14.807-14.807 14.807-38.815-.001-53.623Z"/><path fill="#FFD3BD" d="M493.047 235.129c-14.808-14.808-38.815-14.807-53.623 0l39.724-39.724c14.808-14.808 14.808-38.816 0-53.623-14.808-14.808-38.816-14.808-53.623 0l31.547-31.547c14.538-14.538 15.615-38.225 1.603-53.27-14.711-15.797-39.451-16.128-54.583-.996l-47.257 47.257c14.808-14.808 14.808-38.815 0-53.623s-38.815-14.808-53.623 0L194.874 157.94v-37.854c0-26.03-21.101-47.13-47.131-47.13s-47.131 21.101-47.131 47.13V313.21a65.929 65.929 0 0 1-19.31 46.617l-13.184 13.185c-17.08 17.08-17.08 44.773 0 61.854l64.324 64.324c17.08 17.08 44.773 17.08 61.854 0l45.778-45.778a27.417 27.417 0 0 1 19.386-8.03h30.74a111.584 111.584 0 0 0 78.902-32.682l123.947-123.947c14.806-14.809 14.806-38.817-.002-53.624Z"/><path fill="#FFBE9D" d="M291.316 176.244a7.5 7.5 0 0 1-5.303-12.803l65.518-65.518a7.501 7.501 0 0 1 10.606 10.607l-65.518 65.518a7.477 7.477 0 0 1-5.303 2.196Zm63.158 44.088a7.5 7.5 0 0 1-5.303-12.803l71.051-71.051a7.501 7.501 0 0 1 10.606 10.607l-71.051 71.051a7.477 7.477 0 0 1-5.303 2.196Zm44.089 63.158a7.5 7.5 0 0 1-5.303-12.803l40.861-40.861a7.5 7.5 0 0 1 10.607 10.607l-40.861 40.861a7.483 7.483 0 0 1-5.304 2.196Z"/></g><defs><clipPath id="a"><path fill="#fff" d="M0 0h512v512H0z"/></clipPath></defs></svg>
